X:1
T:Title
%%score 1 2
L:1/8
Q:1/4=70
M:4/4
K:A
V:1 treble nm="Strings 1, Treble"
V:2 bass nm="Strings 1, Bass"
V:1
 z4 z2 [CE]2 | [CE]3 [CE] [CE][CE][DF][CE] | [CA]6 [EA]2 | [FA]3 [FA] [EA][EA][DG][CA] | [EB]6 E2 | %5
w: 1.~A|lone~ with~ Je sus,~ oh,~ how~|sweet~ The~|sea sons~ spent~ low~ at~ His~|feet~ In~|
 [Ec]3 [Ec] [EB]2 [EA]2 | [DF]2 [FA]2 [Fd]2 [DF]2 | [CE]3 [CE] [CE][EA][EG][EB] | [EA]6 [CE]>[CE] | %9
w: hum ble,~ fer vent,~|se cret~ prayer!~ My~|soul~ would~ e'er~ be~ feast ing~|there.~ * *|
 [CE]6 [DF]>[CE] | [CA]6 [EG]>[EA] | [EB]2 [EB]2 [Ec]2 [EA]2 | [EB]6 [CE]>[CE] | [Ec]6 [=Ge]>[Ge] | %14
w: |||||
 [Fe]2 [Fd]4 [EA]>[FB] | [Ec]3 [Ec] [Ec]2 [DB]2 | [CA]6 z2 |] %17
w: |||
V:2
 z4 z2 [A,,A,]2 | [A,,A,]3 [A,,A,] [A,,A,][A,,A,][A,,A,][A,,A,] | [A,,A,]6 [A,,C]2 | %3
 [D,D]3 [D,D] [C,A,][C,A,][B,,E,][A,,A,] | [E,G,]6 [E,G,]2 | [A,,A,]3 [A,,A,] [B,,G,]2 [C,A,]2 | %6
 [D,A,]2 [D,A,]2 [D,A,]2 [D,A,]2 | [E,A,]3 [E,A,] [E,A,][E,C][E,B,][E,D] | [A,,C]6 z2 | %9
 z2 [A,,A,]>[A,,A,] [A,,A,]2 z2 | z2 [A,,A,]>[A,,A,] [A,,A,]2 [E,B,]>[E,A,] | %11
 [E,G,]2 [E,G,]2 A,2 [C,A,]2 | [E,G,]2 [E,G,]2 [E,G,]2 z2 | z2 A,>A, A,2 [C,A,]>[C,A,] | %14
 [D,A,]2 [D,A,]4 [C,A,]>[D,A,] | [E,A,]3 [E,A,] [E,A,]2 [E,G,]2 | [A,,A,]6 z2 |] %17

